X:237
T:Jolly Tinker, The
R:reel
D:Martin O'Connor: The Connaughtman's Rambles
Z:id:hn-reel-237
M:C|
K:Ador
~A3B ~G3B|A2af gedB|~A3B ~G3B|1 dBGB dedB:|2 dBGB d2 (3Bcd||
edef g2fg|edef gedg|edeg ~a3b|a2bg aged|
edef ~g3a|bgaf gedg|edeg ~a3b|c'abg aged||
eaag ed (3Bcd|eaag egdg|eaag efge|dBGB d2 (3Bcd|
eaag eaag|eaag egdg|eaag efge|dBGB d2 (3Bcd||
edgd ed (3Bcd|edgd egdg|edgd efge|dBGB d2 (3Bcd|
edgd edgd|edgd egdg|edgd efge|dBGB dgfg||
eA~A2 ed (3Bcd|edef g2fg|1 eA~A2 efge|dBGB dgfg:|2 eaag efge|dBGB dedB||
